data/styles/clear/style-clear/symbols/subway-m.svg

<svg height="24" viewBox="0 0 24 24" width="24"><g fill="none" fill-rule="evenodd"><rect fill="#fff" height="24" opacity=".6" rx="2.5" width="24"/><rect fill="#2f6499" height="22" rx="2" width="22" x="1" y="1"/><path d="m8 6-2 1.5.04237783 9.4690843c.01536083.5.51536083 1 1.01536083 1h10.00000004c.5 0 .992506-.3291073.9846391-1l-.0423778-9.4690843-2-1.5zm1.61843002 2.00553119h4.99999998l1.4239478 1.09863746v3.84438005h-7.99999997v-3.84438005zm-.57605219 7.57083241c0 .414214-.33579.75-.75.75s-.75-.335786-.75-.75.33579-.75.75-.75.75.335786.75.75zm7.49999997 0c0 .414214-.33579.75-.75.75s-.75-.335786-.75-.75.33579-.75.75-.75.75.335786.75.75z" fill="#fff"/></g></svg>

<svg width="24" height="24" viewBox="0 0 24 24">
  <g fill="none" fill-rule="evenodd">
    <rect width="24" height="24" fill="#FFF" opacity=".6" rx="2.5"/>
    <rect width="22" height="22" x="1" y="1" fill="#2F6499" rx="2"/>
    <path fill="#FFF" d="M8,6 L6,7.5 L6.04237783,16.9690843 C6.05773866,17.4690843 6.55773866,17.9690843 7.05773866,17.9690843 L17.0577387,17.9690843 C17.5577387,17.9690843 18.0502447,17.639977 18.0423778,16.9690843 L18,7.5 L16,6 L8,6 Z M9.61843002,8.00553119 L14.61843,8.00553119 L16.0423778,9.10416865 L16.0423778,12.9485487 L8.04237783,12.9485487 L8.04237783,9.10416865 L9.61843002,8.00553119 Z M9.04237783,15.5763636 C9.04237783,15.9905776 8.70658783,16.3263636 8.29237783,16.3263636 C7.87816783,16.3263636 7.54237783,15.9905776 7.54237783,15.5763636 C7.54237783,15.1621496 7.87816783,14.8263636 8.29237783,14.8263636 C8.70658783,14.8263636 9.04237783,15.1621496 9.04237783,15.5763636 Z M16.5423778,15.5763636 C16.5423778,15.9905776 16.2065878,16.3263636 15.7923778,16.3263636 C15.3781678,16.3263636 15.0423778,15.9905776 15.0423778,15.5763636 C15.0423778,15.1621496 15.3781678,14.8263636 15.7923778,14.8263636 C16.2065878,14.8263636 16.5423778,15.1621496 16.5423778,15.5763636 Z"/>
  </g>
</svg>
